Papirus/48x48/mimetypes/application-x-hip.svg

<svg width="48" height="48" version="1.1" xmlns="http://www.w3.org/2000/svg">
 <path d="m10 5c-1.108 0-2 0.892-2 2v36c0 1.108 0.892 2 2 2h28c1.108 0 2-0.892 2-2v-26l-12-12z" style="opacity:.2"/>
 <path d="m10 4c-1.108 0-2 0.892-2 2v36c0 1.108 0.892 2 2 2h28c1.108 0 2-0.892 2-2v-26l-12-12z" style="fill:#f36128"/>
 <path d="m40 17-12-12v10c0 1.108 0.892 2 2 2z" style="opacity:.2"/>
 <path d="m40 16-12-12v10c0 1.108 0.892 2 2 2z" style="fill:#ebb9a1"/>
 <path d="m10 4c-1.108 0-2 0.892-2 2v1c0-1.108 0.892-2 2-2h18v-1z" style="fill:#ffffff;opacity:.2"/>
 <path d="m18.085992 20.000004c-4.04507-0.0025-7.46177 1.297216-10.085992 3.307166v3.934685c2.144947-2.222449 5.278038-3.772663 9.274839-3.833145 0.266451-0.0041 0.537058-0.0012 0.811153 0.0082 6.18919 0.213638 10.307718 5.142374 10.31397 10.26166 0.0077 5.653463-3.491079 9.514595-9.389848 9.441215-4.017275-0.04982-7.931703-2.794394-7.831653-6.969725 0.07921-3.315349 2.430023-5.99679 6.166599-6.085309 3.020254-0.07146 4.236932 2.009958 4.236932 3.298028 0 1.221178-0.723359 2.795326-2.500635 3.17415-1.435433 0.305969-3.466126-1.196965-1.932722-3.247259-1.567447-0.07119-2.93433 0.918285-3.01562 2.670509-0.157021 3.397929 3.370559 4.717296 5.625152 4.356078 4.134-0.662043 5.666305-3.347978 5.647545-6.996124-0.02017-3.817144-3.48242-7.19382-7.970069-7.238807-3.592064-0.035705-7.8800095 2.020406-9.435643 6.504666v6.870173c0.6454372 1.678108 1.7960226 3.282563 3.384296 4.543835 1.630979-0.0037 14.630751-0.0037 16.078815-0.0067 2.959015-2.230855 4.777102-5.80083 4.778888-10.335095 0.0021-7.615779-5.496145-13.653054-14.156007-13.658184z" style="fill:#0c0c0c;opacity:.2"/>
 <path d="m18.086169 19.000004c-4.045141-0.0025-7.461901 1.297415-10.086169 3.307672v3.935287c2.144985-2.222789 5.27813-3.77324 9.275001-3.833731 0.266456-0.0041 0.537068-0.0012 0.811168 0.0082 6.189298 0.213671 10.307898 5.143161 10.31415 10.26323 0.0077 5.654328-3.49114 9.516051-9.390012 9.442659-4.017346-0.04983-7.931842-2.794821-7.83179-6.970791 0.07921-3.315856 2.430065-5.997707 6.166707-6.08624 3.020307-0.07147 4.237006 2.010266 4.237006 3.298533 0 1.221365-0.723372 2.795753-2.500679 3.174635-1.435458 0.306016-3.466187-1.197148-1.932756-3.247756-1.567474-0.0712-2.934381 0.918426-3.015673 2.670918-0.157023 3.398449 3.370618 4.718018 5.625251 4.356744 4.134072-0.662144 5.666404-3.34849 5.647644-6.997194-0.02017-3.817728-3.482481-7.19492-7.970209-7.239914-3.592127-0.03571-7.8801473 2.020716-9.435808 6.505662v6.871224c0.8309802 2.160804 2.499267 4.199509 4.860899 5.540858h13.029582c3.874912-2.069842 6.349859-6.04826 6.351943-11.339722 0.0021-7.616944-5.496242-13.655143-14.156255-13.660274z" style="fill:#e4e4e4"/>
</svg>

<svg xmlns="http://www.w3.org/2000/svg" width="48" height="48" version="1.1">
 <path style="opacity:0.2" d="m10 5c-1.108 0-2 0.892-2 2v36c0 1.108 0.892 2 2 2h28c1.108 0 2-0.892 2-2v-26l-12-12z"/>
 <path style="fill:#f36128" d="m10 4c-1.108 0-2 0.892-2 2v36c0 1.108 0.892 2 2 2h28c1.108 0 2-0.892 2-2v-26l-12-12z"/>
 <path style="opacity:0.2" d="m40 17-12-12v10c0 1.108 0.892 2 2 2z"/>
 <path style="fill:#ebb9a1" d="m40 16-12-12v10c0 1.108 0.892 2 2 2z"/>
 <path style="fill:#ffffff;opacity:0.2" d="m10 4c-1.108 0-2 0.892-2 2v1c0-1.108 0.892-2 2-2h18v-1z"/>
 <path style="opacity:0.2" d="M 18.086,20 C 14.041,19.998 10.624,21.297 8,23.307 V 27.242 C 10.145,25.019 13.278,23.469 17.275,23.409 17.541,23.405 17.812,23.408 18.086,23.417 24.275,23.631 28.394,28.559 28.4,33.679 28.408,39.332 24.909,43.193 19.01,43.12 14.993,43.07 11.078,40.325 11.178,36.15 11.258,32.835 13.608,30.153 17.345,30.065 20.365,29.993 21.582,32.075 21.582,33.363 21.582,34.584 20.859,36.158 19.081,36.537 17.646,36.843 15.615,35.34 17.149,33.29 15.581,33.218 14.214,34.208 14.133,35.96 13.976,39.358 17.504,40.677 19.758,40.316 23.892,39.654 25.424,36.968 25.406,33.32 25.386,29.503 21.923,26.126 17.436,26.081 13.844,26.046 9.5556,28.102 8,32.586 V 39.456 C 8.6454,41.134 9.796,42.739 11.384,44 13.015,43.996 26.015,43.996 27.463,43.993 30.422,41.762 32.24,38.192 32.242,33.658 32.244,26.042 26.746,20.005 18.086,20 Z"/>
 <path style="fill:#e4e4e4" d="M 18.086,19 C 14.041,18.998 10.624,20.297 8,22.308 V 26.243 C 10.145,24.02 13.278,22.47 17.275,22.409 17.541,22.405 17.812,22.408 18.086,22.417 24.275,22.631 28.394,27.561 28.4,32.681 28.408,38.335 24.909,42.197 19.01,42.123 14.993,42.073 11.078,39.329 11.179,35.153 11.258,31.837 13.609,29.155 17.345,29.066 20.366,28.995 21.582,31.077 21.582,32.365 21.582,33.586 20.859,35.161 19.082,35.539 17.646,35.845 15.615,34.342 17.149,32.292 15.581,32.221 14.214,33.21 14.133,34.963 13.976,38.361 17.504,39.681 19.758,39.319 23.892,38.657 25.425,35.971 25.406,32.322 25.386,28.504 21.924,25.127 17.436,25.082 13.844,25.047 9.5557,27.103 8,31.588 V 38.459 C 8.831,40.62 10.499,42.659 12.861,44 H 25.89 C 29.765,41.93 32.24,37.952 32.242,32.66 32.245,25.043 26.746,19.005 18.086,19 Z"/>
</svg>
